app/images/dist/twitter.svg

<svg width="48" height="48" fill="none" xmlns="http://www.w3.org/2000/svg"><path d="M39.266 15.956c.026.35.026.698.026 1.046 0 10.65-8.106 22.922-22.92 22.922A22.762 22.762 0 014 36.306c.648.074 1.272.1 1.946.1 3.766 0 7.232-1.272 10.002-3.442a8.072 8.072 0 01-7.534-5.586c.498.074.998.124 1.522.124.722 0 1.448-.1 2.122-.274a8.054 8.054 0 01-6.46-7.906v-.1a8.129 8.129 0 003.64 1.022 8.044 8.044 0 01-3.592-6.708c0-1.496.398-2.868 1.096-4.064a22.914 22.914 0 0016.612 8.43c-.124-.6-.2-1.222-.2-1.846A8.052 8.052 0 0131.21 8c2.32 0 4.414.972 5.886 2.544a15.914 15.914 0 005.112-1.946 8.041 8.041 0 01-3.542 4.44 16.146 16.146 0 004.638-1.248 17.29 17.29 0 01-4.038 4.166z" fill="#fff"/></svg>

<svg width="48" height="48" viewBox="0 0 48 48" fill="none" xmlns="http://www.w3.org/2000/svg">
<path d="M39.266 15.956C39.292 16.306 39.292 16.654 39.292 17.002C39.292 27.652 31.186 39.924 16.372 39.924C11.808 39.924 7.568 38.602 4 36.306C4.648 36.38 5.272 36.406 5.946 36.406C9.712 36.406 13.178 35.134 15.948 32.964C12.406 32.89 9.438 30.57 8.414 27.378C8.912 27.452 9.412 27.502 9.936 27.502C10.658 27.502 11.384 27.402 12.058 27.228C8.364 26.48 5.598 23.238 5.598 19.322V19.222C6.672 19.82 7.918 20.194 9.238 20.244C7.068 18.8 5.646 16.33 5.646 13.536C5.646 12.04 6.044 10.668 6.742 9.472C10.708 14.358 16.67 17.552 23.354 17.902C23.23 17.302 23.154 16.68 23.154 16.056C23.154 11.616 26.746 8 31.21 8C33.53 8 35.624 8.972 37.096 10.544C38.916 10.194 40.66 9.52 42.208 8.598C41.61 10.468 40.336 12.04 38.666 13.038C40.288 12.862 41.86 12.414 43.304 11.79C42.208 13.386 40.838 14.808 39.266 15.956Z" fill="white"/>
</svg>
